icons/actions/24/zoom-1-to-2.svg

<?xml version="1.0"?>
<!-- Created with Inkscape (http://www.inkscape.org/) -->
<svg xmlns:dc="http://purl.org/dc/elements/1.1/" xmlns:cc="http://creativecommons.org/ns#" xmlns:rdf="http://www.w3.org/1999/02/22-rdf-syntax-ns#" xmlns:svg="http://www.w3.org/2000/svg" xmlns="http://www.w3.org/2000/svg" xmlns:sodipodi="http://sodipodi.sourceforge.net/DTD/sodipodi-0.dtd" xmlns:inkscape="http://www.inkscape.org/namespaces/inkscape" width="24" height="24" id="svg4355" version="1.1" inkscape:version="0.91 r13725" sodipodi:docname="zoom-1-to-2.svg">
  <defs id="defs4357">
    <style type="text/css" id="current-color-scheme">
      .ColorScheme-Text {
        color:#4d4d4d;
      }
      .ColorScheme-Background {
        color:#eff0f1;
      }
      .ColorScheme-Highlight {
        color:#3daee9;
      }
      .ColorScheme-ViewText {
        color:#31363b;
      }
      .ColorScheme-ViewBackground {
        color:#fcfcfc;
      }
      .ColorScheme-ViewHover {
        color:#93cee9;
      }
      .ColorScheme-ViewFocus{
        color:#3daee9;
      }
      .ColorScheme-ButtonText {
        color:#31363b;
      }
      .ColorScheme-ButtonBackground {
        color:#eff0f1;
      }
      .ColorScheme-ButtonHover {
        color:#93cee9;
      }
      .ColorScheme-ButtonFocus{
        color:#3daee9;
      }
      </style>
  </defs>
  <sodipodi:namedview id="base" pagecolor="#ffffff" bordercolor="#666666" borderopacity="1.0" inkscape:pageopacity="0.0" inkscape:pageshadow="2" inkscape:zoom="24.151608" inkscape:cx="8.8970197" inkscape:cy="12.799242" inkscape:document-units="px" inkscape:current-layer="layer1" showgrid="true" width="0px" height="0px" fit-margin-top="0" fit-margin-left="0" fit-margin-right="0" fit-margin-bottom="0" inkscape:window-width="2560" inkscape:window-height="957" inkscape:window-x="0" inkscape:window-y="30" inkscape:window-maximized="1" inkscape:showpageshadow="false">
    <inkscape:grid type="xygrid" id="grid4114" originx="0.99999887" originy="1.0000038"/>
    <sodipodi:guide position="3,21" orientation="18,0" id="guide4120"/>
    <sodipodi:guide position="3,3" orientation="0,18" id="guide4122"/>
    <sodipodi:guide position="21,3" orientation="-18,0" id="guide4124"/>
    <sodipodi:guide position="21,21" orientation="0,-18" id="guide4126"/>
    <sodipodi:guide position="4,20" orientation="16,0" id="guide4128"/>
    <sodipodi:guide position="4,4" orientation="0,16" id="guide4130"/>
    <sodipodi:guide position="20,4" orientation="-16,0" id="guide4132"/>
    <sodipodi:guide position="20,20" orientation="0,-16" id="guide4134"/>
  </sodipodi:namedview>
  <metadata id="metadata4360">
    <rdf:RDF>
      <cc:Work rdf:about="">
        <dc:format>image/svg+xml</dc:format>
        <dc:type rdf:resource="http://purl.org/dc/dcmitype/StillImage"/>
        <dc:title/>
      </cc:Work>
    </rdf:RDF>
  </metadata>
  <g inkscape:label="Capa 1" inkscape:groupmode="layer" id="layer1" transform="translate(-543.57141,-741.93359)">
    <path style="opacity:1;fill:currentColor;fill-opacity:1;stroke:none" d="M 3,3 3,4 3,6 4,6 4,4 6,4 6,3 4,3 3,3 Z" transform="translate(544.57141,742.93359)" id="path4162" inkscape:connector-curvature="0" class="ColorScheme-Text"/>
    <path style="opacity:1;fill:currentColor;fill-opacity:1;stroke:none" d="m 18,16 0,2 -2,0 0,1 3,0 0,-3 -1,0 z" transform="translate(544.57141,742.93359)" id="rect4134" inkscape:connector-curvature="0" class="ColorScheme-Text"/>
    <path style="opacity:1;fill:currentColor;fill-opacity:1;stroke:none" d="m 16,3 0,1 2,0 0,2 1,0 0,-2 0,-1 -1,0 -2,0 z" transform="translate(544.57141,742.93359)" id="path4170" inkscape:connector-curvature="0" class="ColorScheme-Text"/>
    <path style="opacity:1;fill:currentColor;fill-opacity:1;stroke:none" d="m 3,16 0,2 0,1 3,0 0,-1 -2,0 0,-2 -1,0 z" transform="translate(544.57141,742.93359)" id="path4172" inkscape:connector-curvature="0" class="ColorScheme-Text"/>
    <rect style="opacity:1;fill:currentColor;fill-opacity:1;stroke:none;stroke-width:2.79999995;stroke-miterlimit:4;stroke-dasharray:none;stroke-opacity:0.55026455" id="rect4148" width="4.999999" height="11.999996" x="-561.57141" y="747.93359" transform="scale(-1,1)" class="ColorScheme-Text"/>
    <rect style="opacity:1;fill:currentColor;fill-opacity:1;stroke:none;stroke-width:2.79999995;stroke-miterlimit:4;stroke-dasharray:none;stroke-opacity:0.55026455" id="rect4150" width="3.0000012" height="6.0000038" x="-552.57141" y="750.93359" transform="scale(-1,1)" class="ColorScheme-Text"/>
    <path style="fill:currentColor;fill-opacity:1;fill-rule:evenodd;stroke:none;stroke-width:1px;stroke-linecap:butt;stroke-linejoin:miter;stroke-opacity:1" d="m 553.57141,755.93359 2,-2 -2,-2 z" id="path4152" inkscape:connector-curvature="0" class="ColorScheme-Text"/>
  </g>
</svg>

<svg xmlns="http://www.w3.org/2000/svg" viewBox="0 0 24 24">
  <defs id="defs3051">
    <style type="text/css" id="current-color-scheme">
      .ColorScheme-Text {
        color:#4d4d4d;
      }
      </style>
  </defs>
 <path 
     style="fill:currentColor;fill-opacity:1;stroke:none" 
     d="M 3 3 L 3 4 L 3 6 L 4 6 L 4 4 L 6 4 L 6 3 L 4 3 L 3 3 z M 16 3 L 16 4 L 18 4 L 18 6 L 19 6 L 19 4 L 19 3 L 18 3 L 16 3 z M 12 5 L 12 17 L 17 17 L 17 5 L 12 5 z M 5 8 L 5 14 L 8 14 L 8 8 L 5 8 z M 9 9 L 9 13 L 11 11 L 9 9 z M 3 16 L 3 18 L 3 19 L 6 19 L 6 18 L 4 18 L 4 16 L 3 16 z M 18 16 L 18 18 L 16 18 L 16 19 L 19 19 L 19 16 L 18 16 z "
	 class="ColorScheme-Text"
     transform="translate(1,1)"
     />
</svg>
